X:11
T:Emslie's Fiddle
R: strathspey
C: J. Scott Skinner
M:C
L:1/16
Z: Jason R. Fruit <JasonFruit@gmail.com>
U: T=!tenuto!
K:A
!f!G2 | {G}[AA]4 (E3TC) (!turn!A,2<<TC2) (E2>>TC2) | {C}[DD]4 B3A GB3 Ee3 | {G}!f![AA]4 E3C .A,.B,.C.D E3C | [DD]2>>F2 B,2>>G2 {G}[AA]4 z2 :|
g2 | {g}!>!a4 (e3Td) (cd).e.f {g}a4 | {^a}b4 (f3Te) def^a b3g | {g}!>!a4 (e3Td) (cd).e.g {g}(a3Tc) | (d2>>Tf2) (B2>>Tg2) {g}a4- a2 [g2] & x14 "_[sic]"z2 |
{g}!>!a4 (e3Td) (cd).e.f {g}a4 | {^a}b4 (f3Te) def^a b3g | .!>!a.g.f.a .g.f.e.g .!>!f.e.d.f !>!.e.d.c.e | dcde fgae cA3 [AE]2 |]

